X: 361
T: 362. Es ist gewi\sslich an der Zeit
N: Derived from chor362.krn
C: Johann Sebastian Bach
%%abc-version 2.0
%%abcx-abcm2ps-target-version 5.9.1 (29 Sep 2008)
%%abc-creator hum2abc beta
%%abcx-conversion-date 2019/03/11 17:28:19
%%abc-edited-by Craig Stuart Sapp
%%humdrum-veritas 2454931114
%%humdrum-veritas-data 2138958825
%%
%%barnumbers 0
L: 1/4
M: C
%%staves [1 2 3 4]
V: 1 clef=treble
V: 2 clef=treble
V: 3 clef=treble-8
V: 4 clef=bass
K: G
[V:1] G [I:setbarnb 1]| 
[V:2] D | 
[V:3] B | 
[V:4] G,/F,/ | 
[V:1] G/A/BAG | 
[V:2] E/F/GG/F/G | 
[V:3] Bee/d/d | 
[V:4] E,3/D,/C,3/B,,/ | 
[V:1] AA!fermata!BG/A/ | 
[V:2] GF!fermata!GE/F/ | 
[V:3] e/c/ A/d/!fermata!de | 
[V:4] C,/A,,/D,!fermata!G,,C, | 
[V:1] Bcdc/B/ | 
[V:2] G/BA//G//FG | 
[V:3] dG/A/ B/c/d | 
[V:4] G,/F,/E,B,/A,/G, | 
[V:1] A/G/A!fermata!G :|]  
[V:2] GF!fermata!D :|]  
[V:3] dc/B/!fermata!B :|]  
[V:4] DD,!fermata!G, :|]  
[V:1] B [I:setbarnb 5]| 
[V:2] G | 
[V:3] d | 
[V:4] G,/A,/ | 
[V:1] BAGF | 
[V:2] G3/F/ F/E/ E/^D/ | 
[V:3] dd/c/ B/c/ F/B/ | 
[V:4] B,/C/DG,/A,/B, | 
[V:1] G/A/B!fermata!AA | 
[V:2] E=D!fermata!DD | 
[V:3] B/A/ A/G/!fermata!FD | 
[V:4] E,/F,/G,!fermata!D,D/C/ | 
[V:1] GFGD | 
[V:2] D/C/DD/C/B, | 
[V:3] G/A/ B/c/ B/A/G | 
[V:4] B,3/A,/G,3/F,/ | 
[V:1] GA!fermata!BG/A/ | 
[V:2] B,E!fermata!^DB, | 
[V:3] GF/E/!fermata!FE/F/ | 
[V:4] E,/D,/C,!fermata!B,,E, | 
[V:1] Bcdc/B/ | 
[V:2] EE=D/E//F//G | 
[V:3] G3/A/ B/c/d | 
[V:4] E,/=D,/C,B,,/A,,/G,, | 
[V:1] A/G/A!fermata!G |]  
[V:2] GF!fermata!D |]  
[V:3] dc/B/!fermata!B |]  
[V:4] D,2!fermata!G,, |]  



